assets/img/svg/icons/logo-1ats.svg

<svg xmlns="http://www.w3.org/2000/svg" viewBox="0 0 100 46"><linearGradient id="a" gradientUnits="userSpaceOnUse" x1="5.506" y1="-5.635" x2="21.843" y2="52.143"><stop offset="0" stop-color="#f8af19"/><stop offset="1" stop-color="#ef791b"/></linearGradient><path d="M13.3 37.9c1.6 0 3-1.3 3-3s-1.3-3-3-3c-1.6 0-3 1.3-3 3s1.4 3 3 3zm2.7-8c1.6 0 3-1.3 3-3s-1.3-3-3-3c-1.6 0-3 1.3-3 3s1.4 3 3 3zm2.8-7.9c1.6 0 3-1.3 3-3s-1.3-3-3-3-3 1.3-3 3 1.4 3 3 3zm2.7-7.9c1.6 0 3-1.3 3-3 0-1.6-1.3-3-3-3s-3 1.3-3 3c.1 1.6 1.4 3 3 3zm2.7-8c1.6 0 3-1.3 3-3s-1.3-3-3-3-3 1.3-3 3 1.4 3 3 3zM3 45.8c1.6 0 3-1.3 3-3s-1.3-3-3-3-3 1.3-3 3 1.3 3 3 3zm2.7-7.9c1.6 0 3-1.3 3-3s-1.3-3-3-3-3 1.3-3 3 1.3 3 3 3zm2.7-8c1.6 0 3-1.3 3-3s-1.3-3-3-3-3 1.3-3 3 1.3 3 3 3zm2.8-7.9c1.6 0 3-1.3 3-3s-1.3-3-3-3-3 1.3-3 3 1.4 3 3 3zm2.7-7.9c1.6 0 3-1.3 3-3 0-1.6-1.3-3-3-3-1.6 0-3 1.3-3 3 0 1.6 1.3 3 3 3zm2.7-8c1.6 0 3-1.3 3-3s-1.3-3-3-3-3 1.3-3 3 1.3 3 3 3zm-10.4 8c1.6 0 3-1.3 3-3 0-1.6-1.3-3-3-3s-3 1.3-3 3c.1 1.6 1.4 3 3 3z" fill-rule="evenodd" clip-rule="evenodd" fill="url(#a)"/><path d="M75.9 24.5c0 7.7 5.3 13.5 13.7 13.5 4.8 0 8.2-2 10.5-4.4L96.7 29c-1.8 1.8-4.3 3.2-6.9 3.2-5 0-7.4-4-7.4-7.8s2.1-7.4 7.4-7.4c2.3 0 4.8 1.2 6.5 2.7l2.9-4.8c-2.5-2.5-6.3-3.7-9.8-3.7-7.9-.1-13.5 5.7-13.5 13.3zM59.8 37.6h6.4V17H74v-5.5H51.9V17h7.9v20.6zM36.7 27l1.5-5.1c.5-1.6 1.1-4.5 1.1-4.5h.1s.6 2.8 1.1 4.5L42 27h-5.3zm-9.6 10.6h6.6l1.6-5.5h8.1l1.6 5.5h6.6l-8.8-26h-6.7l-9 26z" fill-rule="evenodd" clip-rule="evenodd" fill="#fff"/></svg>

<?xml version="1.0" encoding="utf-8"?>
<!-- Generator: Adobe Illustrator 22.0.1, SVG Export Plug-In . SVG Version: 6.00 Build 0)  -->
<svg version="1.1" id="Layer_1" xmlns="http://www.w3.org/2000/svg" xmlns:xlink="http://www.w3.org/1999/xlink" x="0px" y="0px"
	 viewBox="0 0 100 46" style="enable-background:new 0 0 100 46;" xml:space="preserve">
<style type="text/css">
	.st0{fill-rule:evenodd;clip-rule:evenodd;fill:url(#XMLID_2_);}
	.st1{fill-rule:evenodd;clip-rule:evenodd;fill:#FFFFFF;}
</style>
<g>
	<linearGradient id="XMLID_2_" gradientUnits="userSpaceOnUse" x1="5.5058" y1="-5.6353" x2="21.8431" y2="52.143">
		<stop  offset="0" style="stop-color:#F8AF19"/>
		<stop  offset="1" style="stop-color:#EF791B"/>
	</linearGradient>
	<path id="XMLID_128_" class="st0" d="M13.3,37.9c1.6,0,3-1.3,3-3s-1.3-3-3-3c-1.6,0-3,1.3-3,3S11.7,37.9,13.3,37.9z M16,29.9
		c1.6,0,3-1.3,3-3s-1.3-3-3-3c-1.6,0-3,1.3-3,3S14.4,29.9,16,29.9z M18.8,22c1.6,0,3-1.3,3-3s-1.3-3-3-3s-3,1.3-3,3S17.2,22,18.8,22
		z M21.5,14.1c1.6,0,3-1.3,3-3c0-1.6-1.3-3-3-3s-3,1.3-3,3C18.6,12.7,19.9,14.1,21.5,14.1z M24.2,6.1c1.6,0,3-1.3,3-3s-1.3-3-3-3
		s-3,1.3-3,3S22.6,6.1,24.2,6.1z M3,45.8c1.6,0,3-1.3,3-3s-1.3-3-3-3s-3,1.3-3,3S1.3,45.8,3,45.8z M5.7,37.9c1.6,0,3-1.3,3-3
		s-1.3-3-3-3s-3,1.3-3,3S4,37.9,5.7,37.9z M8.4,29.9c1.6,0,3-1.3,3-3s-1.3-3-3-3s-3,1.3-3,3S6.7,29.9,8.4,29.9z M11.2,22
		c1.6,0,3-1.3,3-3s-1.3-3-3-3s-3,1.3-3,3S9.6,22,11.2,22z M13.9,14.1c1.6,0,3-1.3,3-3c0-1.6-1.3-3-3-3c-1.6,0-3,1.3-3,3
		C10.9,12.7,12.2,14.1,13.9,14.1z M16.6,6.1c1.6,0,3-1.3,3-3s-1.3-3-3-3s-3,1.3-3,3S14.9,6.1,16.6,6.1z M6.2,14.1c1.6,0,3-1.3,3-3
		c0-1.6-1.3-3-3-3s-3,1.3-3,3C3.3,12.7,4.6,14.1,6.2,14.1z"/>
	<path id="XMLID_123_" class="st1" d="M75.9,24.5c0,7.7,5.3,13.5,13.7,13.5c4.8,0,8.2-2,10.5-4.4L96.7,29c-1.8,1.8-4.3,3.2-6.9,3.2
		c-5,0-7.4-4-7.4-7.8c0-3.8,2.1-7.4,7.4-7.4c2.3,0,4.8,1.2,6.5,2.7l2.9-4.8c-2.5-2.5-6.3-3.7-9.8-3.7C81.5,11.1,75.9,16.9,75.9,24.5
		z M59.8,37.6h6.4V17H74v-5.5H51.9V17h7.9V37.6z M36.7,27l1.5-5.1c0.5-1.6,1.1-4.5,1.1-4.5h0.1c0,0,0.6,2.8,1.1,4.5l1.5,5.1H36.7z
		 M27.1,37.6h6.6l1.6-5.5h8.1l1.6,5.5h6.6l-8.8-26h-6.7L27.1,37.6z"/>
</g>
</svg>
